souls/img/visa.svg

<svg xmlns="http://www.w3.org/2000/svg" width="36" height="25" fill="none"><g clip-path="url(#a)"><path fill="#000" d="M30.86 14.03h-2.157q.22-.602 1.031-2.913l.047-.147q.063-.164.157-.423.077-.21.14-.423l.188.895zM8.296 12.972 7.39 8.171q-.173-.88-1.172-.88H2.03L2 7.504q4.86 1.286 6.297 5.469zm2.797-5.68-2.53 7.128-.266-1.449q-.407-1.14-1.328-2.108-.922-.968-2.047-1.44l2.11 8.3h2.734l4.078-10.432zm2.172 10.449h2.593l1.625-10.45H14.89zm12-10.189a6.1 6.1 0 0 0-2.328-.44q-1.923 0-3.141.96-1.219.961-1.235 2.491-.015 1.66 2.266 2.832.75.375 1.047.668.297.292.297.634 0 .489-.469.749t-1.078.26q-1.343 0-2.438-.537l-.343-.179-.36 2.344q1.157.553 2.891.553 2.031.017 3.258-.96 1.227-.976 1.258-2.604 0-1.725-2.188-2.832-.765-.407-1.11-.684-.343-.276-.343-.618 0-.358.383-.627.382-.268 1.101-.268 1.094-.017 1.938.39l.234.13zm6.64-.26h-2q-1.015 0-1.36.879l-3.843 9.57h2.719l.547-1.563h3.312q.079.36.313 1.563H34L31.906 7.29zM36 2.083v20.834q0 .846-.594 1.464-.593.62-1.406.619H2q-.813 0-1.406-.619A2.05 2.05 0 0 1 0 22.918V2.083Q0 1.238.594.618 1.188 0 2 0h32q.813 0 1.406.618.594.62.594 1.465"/></g><defs><clipPath id="a"><path fill="#fff" d="M0 0h36v25H0z"/></clipPath></defs></svg>

<svg width="36" height="25" viewBox="0 0 36 25" fill="none" xmlns="http://www.w3.org/2000/svg">
<g clip-path="url(#clip0_0_28)">
<path d="M30.86 14.03H28.703C28.849 13.629 29.193 12.657 29.734 11.117L29.781 10.97C29.823 10.861 29.875 10.72 29.938 10.547C29.9891 10.4075 30.0358 10.2664 30.078 10.124L30.266 11.019L30.859 14.029L30.86 14.03ZM8.296 12.972L7.39 8.171C7.275 7.585 6.884 7.291 6.218 7.291H2.03L2 7.504C5.24 8.361 7.339 10.184 8.297 12.973L8.296 12.972ZM11.093 7.292L8.563 14.42L8.297 12.971C8.026 12.211 7.583 11.509 6.969 10.863C6.354 10.218 5.672 9.737 4.922 9.423L7.032 17.723H9.766L13.844 7.291H11.094L11.093 7.292ZM13.265 17.741H15.858L17.483 7.291H14.89L13.265 17.741ZM25.265 7.552C24.5252 7.2548 23.7343 7.10532 22.937 7.112C21.655 7.112 20.608 7.432 19.796 8.072C18.983 8.713 18.572 9.543 18.561 10.563C18.551 11.67 19.306 12.613 20.827 13.395C21.327 13.645 21.677 13.867 21.874 14.063C22.072 14.258 22.171 14.469 22.171 14.697C22.171 15.023 22.015 15.272 21.702 15.446C21.39 15.62 21.03 15.706 20.624 15.706C19.728 15.706 18.916 15.527 18.186 15.169L17.843 14.99L17.483 17.334C18.254 17.703 19.218 17.887 20.374 17.887C21.728 17.898 22.814 17.578 23.632 16.927C24.45 16.276 24.869 15.408 24.89 14.323C24.89 13.173 24.16 12.229 22.702 11.491C22.192 11.22 21.822 10.991 21.592 10.807C21.364 10.623 21.249 10.417 21.249 10.189C21.249 9.95 21.377 9.741 21.632 9.562C21.887 9.383 22.254 9.294 22.733 9.294C23.463 9.283 24.108 9.413 24.671 9.684L24.905 9.814L25.265 7.552ZM31.905 7.292H29.905C29.228 7.292 28.775 7.585 28.545 8.171L24.702 17.741H27.421L27.968 16.178H31.28C31.332 16.418 31.437 16.938 31.593 17.741H34L31.906 7.29L31.905 7.292ZM36 2.083V22.917C36 23.481 35.802 23.969 35.406 24.381C35.01 24.794 34.542 25 34 25H2C1.458 25 0.989999 24.794 0.593999 24.381C0.402922 24.1887 0.252003 23.9603 0.150025 23.7092C0.0480476 23.458 -0.00295069 23.1891 -1.05501e-06 22.918V2.083C-1.05501e-06 1.52 0.197999 1.031 0.593999 0.618C0.989999 0.206 1.458 0 2 0H34C34.542 0 35.01 0.206 35.406 0.618C35.802 1.031 36 1.519 36 2.083Z" fill="black"/>
</g>
<defs>
<clipPath id="clip0_0_28">
<rect width="36" height="25" fill="white"/>
</clipPath>
</defs>
</svg>
